exported-svg/video-off.svg

<svg height="24" viewBox="0 0 24 24" width="24" xmlns="http://www.w3.org/2000/svg"><path d="m16.4921734 17.1992802c-.1015429 1.2875425-1.178538 2.3007198-2.4921734 2.3007198h-11c-1.38071187 0-2.5-1.1192881-2.5-2.5v-10c0-1.38071187 1.11928813-2.5 2.5-2.5h.79289322l-3.14644661-3.14644661c-.19526215-.19526215-.19526215-.51184463 0-.70710678s.51184463-.19526215.70710678 0l22.00000001 21.99999999c.1952621.1952622.1952621.5118446 0 .7071068-.1952622.1952621-.5118446.1952621-.7071068 0zm-11.69928018-11.6992802h-1.79289322c-.82842712 0-1.5.67157288-1.5 1.5v10c0 .8284271.67157288 1.5 1.5 1.5h11c.8284271 0 1.5-.6715729 1.5-1.5v-.7928932zm17.70710678 2.47875886-5.206959 3.76636694c-.1989557.1439114-.4729657.1220563-.6465944-.0515724l-1-1c-.0937682-.0937682-.1464466-.2209452-.1464466-.3535534v-3.34c0-.82842712-.6715729-1.5-1.5-1.5h-3.34c-.2761424 0-.5-.22385763-.5-.5s.2238576-.5.5-.5h3.34c1.3807119 0 2.5 1.11928813 2.5 2.5v3.1328932l.5522328.5522329 5.6547262-4.09025195c.3306246-.23915181.793041-.00292589.793041.40512585v10c0 .2761424-.2238576.5-.5.5s-.5-.2238576-.5-.5z"/></svg>

<?xml version="1.0" encoding="UTF-8"?>
<svg width="24px" height="24px" viewBox="0 0 24 24" version="1.1" xmlns="http://www.w3.org/2000/svg" xmlns:xlink="http://www.w3.org/1999/xlink">
    <!-- Generator: Sketch 55.2 (78181) - https://sketchapp.com -->
    <title>video-off</title>
    <desc>Created with Sketch.</desc>
    <g id="video-off" stroke="none" stroke-width="1" fill="none" fill-rule="evenodd">
        <path d="M16.4921734,17.1992802 C16.3906305,18.4868227 15.3136354,19.5 14,19.5 L3,19.5 C1.61928813,19.5 0.5,18.3807119 0.5,17 L0.5,7 C0.5,5.61928813 1.61928813,4.5 3,4.5 L3.79289322,4.5 L0.646446609,1.35355339 C0.451184464,1.15829124 0.451184464,0.841708755 0.646446609,0.646446609 C0.841708755,0.451184464 1.15829124,0.451184464 1.35355339,0.646446609 L23.3535534,22.6464466 C23.5488155,22.8417088 23.5488155,23.1582912 23.3535534,23.3535534 C23.1582912,23.5488155 22.8417088,23.5488155 22.6464466,23.3535534 L16.4921734,17.1992802 Z M4.79289322,5.5 L3,5.5 C2.17157288,5.5 1.5,6.17157288 1.5,7 L1.5,17 C1.5,17.8284271 2.17157288,18.5 3,18.5 L14,18.5 C14.8284271,18.5 15.5,17.8284271 15.5,17 L15.5,16.2071068 L4.79289322,5.5 Z M22.5,7.97875886 L17.293041,11.7451258 C17.0940853,11.8890372 16.8200753,11.8671821 16.6464466,11.6935534 L15.6464466,10.6935534 C15.5526784,10.5997852 15.5,10.4726082 15.5,10.34 L15.5,7 C15.5,6.17157288 14.8284271,5.5 14,5.5 L10.66,5.5 C10.3838576,5.5 10.16,5.27614237 10.16,5 C10.16,4.72385763 10.3838576,4.5 10.66,4.5 L14,4.5 C15.3807119,4.5 16.5,5.61928813 16.5,7 L16.5,10.1328932 L17.0522328,10.6851261 L22.706959,6.59487415 C23.0375836,6.35572234 23.5,6.59194826 23.5,7 L23.5,17 C23.5,17.2761424 23.2761424,17.5 23,17.5 C22.7238576,17.5 22.5,17.2761424 22.5,17 L22.5,7.97875886 Z" id="Combined-Shape" fill="#000000" fill-rule="nonzero"></path>
    </g>
</svg>
